X: 20852
T: Duncans Complaint
%R: air
B: James Oswald "The Caledonian Pocket Companion" v.2 p.85 #2
Z: 2019 John Chambers <jc:trillian.mit.edu>
M: 3/4
L: 1/8
K: Bb
|:"_Plaintive"\
d6 | (c2 d2) f2 | g4 f2 | d4 f2 |\
b4 a2 | g4 b2 | {g}f2 d2 B2 | c4 d2 |\
B6 | (c2 d2) f2 | g4 f2 | d4 f2 |\
b4 a2 | g4 b2 | {g}f2 Td2 c2 | B6 :|
|:\
b4 f2 | b4 f2 | g>a b2 a2 | g4 f2 |\
d'4 c'2 | b4 a2 | g>b a2 g2 | f6 |\
B6 | (c2 d2) f2 | (_a2 g2) f2 | g4 =a2 |\
b4 (d'c') | b4 g>b | {g}f2 d2 Tc2 | B6 :|


